assets/img/ca-breast/juggling.svg

<svg height="397" viewBox="0 0 150 397" width="150" xmlns="http://www.w3.org/2000/svg"><g fill="none" fill-rule="evenodd" transform="translate(1 1)"><ellipse cx="76.804124" cy="385.175258" fill="#000" opacity=".204484" rx="71.649485" ry="10.824742"/><path d="m4.991675 58.9843972c-3.23992963-10.4318152 3.53402721-19.931241 4.91160129-20.6322451 1.37757411-.7010041-3.41023652 8.5065367-2.68079187 9.1802915 1.63707834-2.767912 6.03865988-10.1308993 6.86448238-9.1802915.8258226.9506079-5.38037274 9.6134388-3.5743891 10.7630323 1.3067322-1.9186135 7.3486891-11.2233218 8.0001003-9.4296359.6514111 1.7936858-6.1518414 8.7354436-5.5169885 13.4689331-.137967 1.893696 5.0656796-3.0063854 4.6194672-1.1498076-.4462123 1.8565778-1.1223802 2.9473042-6.1774652 6.9797232-3.02424958 1.4665989-4.17577124 1.0000638-6.4460165 0z" fill="#00f"/><path d="m132.764729 59.0732666c-3.008506-9.438309 3.281597-18.0330276 4.560773-18.6672694s-3.166648 7.6963904-2.489307 8.305978c1.520144-2.5043013 5.607327-9.1660517 6.374162-8.305978.766836.8600738-4.99606 8.6978732-3.319075 9.7379816 1.213394-1.7358884 6.823782-10.154434 7.428664-8.5315754s-5.712424 7.9034967-5.122918 12.1861776c-.128112 1.7133441 4.703846-2.7200629 4.289506-1.0403021-.41434 1.6797609-1.042211 2.6666086-5.736218 6.3149877-2.808232 1.3269228-3.877502.9048196-5.985587 0z" fill="#00f" transform="matrix(-1 0 0 1 277.319588 0)"/><path d="m48.7975451 379.516152c-8.212951.626081-19.0163806 3.077512-16.4552904 5.53315 0 .406209 15.3711144 1.21356 21.2929843 0 2.9361965-.601711-1.1442607-5.814705-4.8376939-5.53315z" fill="#00f"/><path d="m115.042455 379.516152c-7.839635.626081-18.1519995 3.077512-15.7073225 5.53315 0 .406209 14.6724275 1.21356 20.3251215 0 2.802733-.601711-1.092249-5.814705-4.617799-5.53315z" fill="#00f" transform="matrix(-1 0 0 1 219.587628 0)"/><path d="m63.9175258 131.038069c7.564941 1.547246 21.4958187 1.569836 27.8350515-1.263584-.9081567-8.891007-3.9632227-26.110569-14.2409252-25.511847-10.2777026.598721-12.8345443 18.084642-13.5941263 26.775431z" fill="#00f"/><g stroke="#000" stroke-width="2"><path d="m8.55226021 59.9175258c-9.69109502 48.1099652 10.38000809 72.1649482 60.21330939 72.1649482 49.8333014 0 73.5957404-24.054983 71.2873184-72.1649482" stroke-linecap="round" stroke-linejoin="round"/><path d="m4.44363085 58.8865979c-10.34926588 37.8847042-2.62086488 63.5984491 23.18520295 77.1412341 30.3989545 12.426979 26.8462108 54.470705 26.8462108 81.621653 28.3416971-3.600544 23.2583674-3.368755 47.9246494 0 0-27.665514 1.145883-64.051597 16.354342-77.71484 20.09894-19.28593 28.351728-46.3019453 24.758363-81.0480471" stroke-linecap="round" stroke-linejoin="round"/><circle cx="25.164949" cy="26.350516" r="4.639175"/><circle cx="56.123711" cy="4.639175" r="4.639175"/><circle cx="94.329897" cy="5.793814" r="4.639175"/><circle cx="123.195876" cy="28.474227" r="4.639175"/><path d="m54.50388 205.457101c19.9618803-1.693831 28.1126245-1.529897 48.148942 0 5.619756 7.582169 8.22511 166.72249 1.951393 175.591597-.582513.823495-4.56927 3.462563-4.9698403 1.922902-3.9136063-15.042604-5.3321-140.647103-19.3421679-144.801457-22.9187702 3.05313-21.3598551 130.446945-26.8411802 145.106995-.5450594 1.457786-3.7857614-2.026748-4.6445475-2.973835-9.4950665-10.471364-2.1026882-145.792068 5.6974009-174.846202z" fill="#000"/></g></g></svg>

<?xml version="1.0" encoding="UTF-8"?>
<svg width="150px" height="397px" viewBox="0 0 150 397" version="1.1" xmlns="http://www.w3.org/2000/svg" xmlns:xlink="http://www.w3.org/1999/xlink">
    <!-- Generator: Sketch 49.3 (51167) - http://www.bohemiancoding.com/sketch -->
    <title>juggling</title>
    <desc>Created with Sketch.</desc>
    <defs></defs>
    <g id="Page-1" stroke="none" stroke-width="1" fill="none" fill-rule="evenodd">
        <g id="Artboard" transform="translate(-76.000000, -66.000000)">
            <g id="juggling" transform="translate(77.000000, 67.000000)">
                <ellipse id="Oval-2" fill="#000000" opacity="0.204483696" cx="76.8041237" cy="385.175258" rx="71.6494845" ry="10.8247423"></ellipse>
                <path d="M4.991675,58.9843972 C1.75174537,48.552582 8.52570221,39.0531562 9.90327629,38.3521521 C11.2808504,37.651148 6.49303977,46.8586888 7.22248442,47.5324436 C8.85956276,44.7645316 13.2611443,37.4015443 14.0869668,38.3521521 C14.9127894,39.30276 8.70659406,47.9655909 10.5125777,49.1151844 C11.8193099,47.1965709 17.8612668,37.8918626 18.512678,39.6855485 C19.1640891,41.4792343 12.3608366,48.4209921 12.9956895,53.1544816 C12.8577225,55.0481776 18.0613691,50.1480962 17.6151567,52.004674 C17.1689444,53.8612518 16.4927765,54.9519782 11.4376915,58.9843972 C8.41344192,60.4509961 7.26192026,59.984461 4.991675,58.9843972 Z" id="Path-4" fill="#0000FF"></path>
                <path d="M132.764729,59.0732666 C129.756223,49.6349576 136.046326,41.040239 137.325502,40.4059972 C138.604678,39.7717554 134.158854,48.1023876 134.836195,48.7119752 C136.356339,46.2076739 140.443522,39.5459235 141.210357,40.4059972 C141.977193,41.266071 136.214297,49.1038704 137.891282,50.1439788 C139.104676,48.4080904 144.715064,39.9895448 145.319946,41.6124034 C145.924828,43.235262 139.607522,49.5159001 140.197028,53.798581 C140.068916,55.5119251 144.900874,51.0785181 144.486534,52.7582789 C144.072194,54.4380398 143.444323,55.4248875 138.750316,59.0732666 C135.942084,60.4001894 134.872814,59.9780862 132.764729,59.0732666 Z" id="Path-4-Copy" fill="#0000FF" transform="translate(138.659794, 50.123711) scale(-1, 1) translate(-138.659794, -50.123711) "></path>
                <path d="M48.7975451,379.516152 C40.5845941,380.142233 29.7811645,382.593664 32.3422547,385.049302 C32.3422547,385.455511 47.7133691,386.262862 53.635239,385.049302 C56.5714355,384.447591 52.4909783,379.234597 48.7975451,379.516152 Z" id="Path-6" fill="#0000FF"></path>
                <path d="M115.042455,379.516152 C107.20282,380.142233 96.8904555,382.593664 99.3351325,385.049302 C99.3351325,385.455511 114.00756,386.262862 119.660254,385.049302 C122.462987,384.447591 118.568005,379.234597 115.042455,379.516152 Z" id="Path-6-Copy" fill="#0000FF" transform="translate(109.793814, 382.597938) scale(-1, 1) translate(-109.793814, -382.597938) "></path>
                <path d="M63.9175258,131.038069 C71.4824668,132.585315 85.4133445,132.607905 91.7525773,129.774485 C90.8444206,120.883478 87.7893546,103.663916 77.5116521,104.262638 C67.2339495,104.861359 64.6771078,122.34728 63.9175258,131.038069 Z" id="Path-3" fill="#0000FF"></path>
                <path d="M8.55226021,59.9175258 C-1.13883481,108.027491 18.9322683,132.082474 68.7655696,132.082474 C118.598871,132.082474 142.36131,108.027491 140.052888,59.9175258" id="Path" stroke="#000000" stroke-width="2" stroke-linecap="round" stroke-linejoin="round"></path>
                <path d="M4.44363085,58.8865979 C-5.90563503,96.7713021 1.82276597,122.485047 27.6288338,136.027832 C58.0277883,148.454811 54.4750446,190.498537 54.4750446,217.649485 C82.8167417,214.048941 77.733412,214.28073 102.399694,217.649485 C102.399694,189.983971 103.545577,153.597888 118.754036,139.934645 C138.852976,120.648715 147.105764,93.6326997 143.512399,58.8865979" id="Path-2" stroke="#000000" stroke-width="2" stroke-linecap="round" stroke-linejoin="round"></path>
                <circle id="Oval" stroke="#000000" stroke-width="2" cx="25.1649485" cy="26.3505155" r="4.63917526"></circle>
                <circle id="Oval-Copy" stroke="#000000" stroke-width="2" cx="56.1237113" cy="4.63917526" r="4.63917526"></circle>
                <circle id="Oval-Copy-3" stroke="#000000" stroke-width="2" cx="94.3298969" cy="5.79381443" r="4.63917526"></circle>
                <circle id="Oval-Copy-2" stroke="#000000" stroke-width="2" cx="123.195876" cy="28.4742268" r="4.63917526"></circle>
                <path d="M54.50388,205.457101 C74.4657603,203.76327 82.6165045,203.927204 102.652822,205.457101 C108.272578,213.03927 110.877932,372.179591 104.604215,381.048698 C104.021702,381.872193 100.034945,384.511261 99.6343747,382.9716 C95.7207684,367.928996 94.3022747,242.324497 80.2922068,238.170143 C57.3734366,241.223273 58.9323517,368.617088 53.4510266,383.277138 C52.9059672,384.734924 49.6652652,381.25039 48.8064791,380.303303 C39.3114126,369.831939 46.7037909,234.511235 54.50388,205.457101 Z" id="Path-5" stroke="#000000" stroke-width="2" fill="#000000"></path>
            </g>
        </g>
    </g>
</svg>
